X:17
T:The Parting Glass
T:Harmony 3
C:Trad, Arr. Adam Blaine
L:1/8
R:Air
M:4/4
Q:"70 bpm"
K:D
{g}fe | {Gdc}d3B {gBd}B2{g}AB | {gc}d2{e}A2 {g}c3 {g}B/c/ | {gc}d4 {g}dc A2 |
{g}A4 c4 | {g}A4 G4- [M:5/4] | G2 {g}A8 [M:3/4]| {g}B2 HA2 {g}HA2 [Q:1/4=115] [M:4/4]| {g}B6 {g}ef | {g}d4 {e}A4 | {GdG}B8 |]

